icons/directional-sign.svg

<?xml version="1.0" encoding="UTF-8"?><svg xmlns="http://www.w3.org/2000/svg" viewBox="0 0 50 50"><g id="uuid-43e2f32c-526e-4363-9204-964a8bab80d3"><path d="M44.33,16.6c.15,0,.3-.07,.39-.19l4.43-5.63c.14-.18,.14-.44,0-.62l-4.43-5.63c-.09-.12-.24-.19-.39-.19h-14.11V1.57c0-.28-.22-.5-.5-.5h-9.79c-.28,0-.5,.22-.5,.5v2.77H4.31c-.28,0-.5,.22-.5,.5v11.26c0,.13,.05,.26,.15,.35s.22,.15,.35,.15h15.11v4.37H5.31c-.15,0-.3,.07-.39,.19L.48,26.79c-.14,.18-.14,.44,0,.62l4.43,5.63c.1,.12,.24,.19,.39,.19h14.11v15.2c0,.28,.22,.5,.5,.5h9.79c.28,0,.5-.22,.5-.5v-15.2h15.14c.28,0,.5-.22,.5-.5v-11.26c0-.13-.05-.26-.15-.35s-.22-.15-.35-.15h-15.14v-4.37h14.11ZM4.81,5.33H44.09l4.04,5.13-4.04,5.13H4.81V5.33Zm15.61-3.27h8.79v2.27h-8.79V2.07Zm24.43,30.16H5.55L1.51,27.1l4.04-5.13H44.86v10.26Zm-15.64,15.7h-8.79v-14.7h8.79v14.7Zm0-26.96h-8.79v-4.37h8.79v4.37Z"/></g><g id="uuid-92b91e9c-5111-4a84-81b5-cbe59bf9d7cb"><text transform="translate(-.16 55.05)" font-family="Roboto-Regular, Roboto" font-size="6"><tspan x="0" y="0">di</tspan><tspan x="4.84" y="0" letter-spacing="0em">r</tspan><tspan x="6.81" y="0">ectional-sign</tspan></text></g></svg>

<svg xmlns="http://www.w3.org/2000/svg" viewBox="0 0 50 50"><g id="b89e3a8f-2af8-465a-9c4c-550af4c3b248" data-name="ICONS"><path d="M44.33,16.6a.49.49,0,0,0,.39-.19l4.43-5.64a.5.5,0,0,0,0-.61L44.72,4.52a.49.49,0,0,0-.39-.19H30.22V1.57a.5.5,0,0,0-.5-.5h-9.8a.5.5,0,0,0-.5.5V4.33H4.31a.5.5,0,0,0-.5.5V16.1a.51.51,0,0,0,.5.5H19.42V21H5.31a.49.49,0,0,0-.39.19L.48,26.79a.51.51,0,0,0,0,.62L4.92,33a.49.49,0,0,0,.39.19H19.42v15.2a.5.5,0,0,0,.5.5h9.8a.5.5,0,0,0,.5-.5V33.23H45.36a.5.5,0,0,0,.5-.5V21.47a.55.55,0,0,0-.15-.36.52.52,0,0,0-.35-.14H30.22V16.6ZM4.81,5.33H44.09l4,5.14-4,5.13H4.81ZM20.42,2.07h8.8V4.33h-8.8ZM44.86,32.23H5.55l-4-5.13,4-5.13H44.86ZM29.22,47.93h-8.8V33.23h8.8Zm0-27h-8.8V16.6h8.8Z"/></g><g id="acef554d-97d9-4afa-abc2-16ee31fc7830" data-name="LABELS"><text transform="translate(-0.16 55.05)" font-size="6" font-family="Roboto-Regular, Roboto">di<tspan x="4.84" y="0" letter-spacing="-0.01em">r</tspan><tspan x="6.81" y="0">ectional-sign</tspan></text></g></svg>
